data/img/paconsulting.svg

<?xml version="1.0" encoding="UTF-8" standalone="no"?>
<!-- Created with Inkscape (http://www.inkscape.org/) -->

<svg
   xmlns:dc="http://purl.org/dc/elements/1.1/"
   xmlns:cc="http://creativecommons.org/ns#"
   xmlns:rdf="http://www.w3.org/1999/02/22-rdf-syntax-ns#"
   xmlns:svg="http://www.w3.org/2000/svg"
   xmlns="http://www.w3.org/2000/svg"
   xmlns:sodipodi="http://sodipodi.sourceforge.net/DTD/sodipodi-0.dtd"
   xmlns:inkscape="http://www.inkscape.org/namespaces/inkscape"
   width="250"
   height="91"
   viewBox="0 0 250 91"
   id="svg2"
   version="1.1"
   inkscape:version="0.92.2 (5c3e80d, 2017-08-06)"
   sodipodi:docname="paconsulting.svg">
  <defs
     id="defs4" />
  <sodipodi:namedview
     id="base"
     pagecolor="#ffffff"
     bordercolor="#666666"
     borderopacity="1.0"
     inkscape:pageopacity="0.0"
     inkscape:pageshadow="2"
     inkscape:zoom="2.8284271"
     inkscape:cx="70.675883"
     inkscape:cy="51.144972"
     inkscape:document-units="px"
     inkscape:current-layer="layer1"
     showgrid="false"
     inkscape:window-width="1920"
     inkscape:window-height="1046"
     inkscape:window-x="-11"
     inkscape:window-y="-11"
     inkscape:window-maximized="1"
     units="px" />
  <metadata
     id="metadata7">
    <rdf:RDF>
      <cc:Work
         rdf:about="">
        <dc:format>image/svg+xml</dc:format>
        <dc:type
           rdf:resource="http://purl.org/dc/dcmitype/StillImage" />
        <dc:title></dc:title>
      </cc:Work>
    </rdf:RDF>
  </metadata>
  <g
     inkscape:label="Layer 1"
     inkscape:groupmode="layer"
     id="layer1"
     transform="translate(0,-961.4)">
    <rect
       style="opacity:0.001;fill:#ffffff;fill-opacity:1;stroke:none;stroke-width:2.5;stroke-linecap:round;stroke-linejoin:round;stroke-miterlimit:4;stroke-dasharray:none;stroke-dashoffset:0;stroke-opacity:1"
       id="rect4175"
       width="250"
       height="91"
       x="0"
       y="961.4" />
    <path
       style="fill:#ffffff;fill-rule:evenodd;stroke-width:1.07759988;opacity:0.95"
       mask="none"
       d="M 120.99414 12.023438 C 102.08442 12.024437 86.753906 27.352832 86.753906 46.263672 C 86.753906 65.173372 102.08442 80.5 120.99414 80.5 C 139.90602 80.5 155.23438 65.173372 155.23438 46.263672 C 155.23438 45.151572 155.17461 44.054556 155.07227 42.972656 A 6.5625834 6.5625834 0 0 1 153.87109 43.085938 A 6.4224954 6.4224954 0 0 1 151.49219 30.699219 A 34.469188 34.469188 0 0 0 150.11914 28.257812 A 9.6057255 9.6057255 0 0 1 139 17.138672 A 34.081252 34.081252 0 0 0 120.99414 12.023438 z M 131.16602 29.015625 C 132.04534 29.015625 132.82703 29.293458 133.47461 29.861328 C 133.98208 30.305308 134.48276 31.114765 134.80859 31.921875 C 135.17718 32.834595 146.97656 61.611328 146.97656 61.611328 L 140.41016 61.611328 C 139.24615 61.611328 139.01175 61.451434 138.62891 60.552734 C 138.61709 60.520434 136.16602 54.583984 136.16602 54.583984 L 127.69336 54.583984 L 124.93164 61.611328 L 117.33203 61.611328 C 117.87616 60.317128 121.17379 52.511506 121.99609 50.691406 C 122.84201 48.826106 123.31338 48.400391 125.58398 48.400391 L 133.62305 48.400391 C 131.12071 42.314091 129.33877 37.976567 128.14258 35.060547 C 127.65018 33.855807 127.44727 33.082566 127.44727 32.378906 C 127.44727 30.642866 128.95367 29.015625 131.16602 29.015625 z M 99.443359 29.242188 L 111.20703 29.242188 C 115.61423 29.242188 118.87648 30.365093 121.02734 32.439453 C 122.89595 34.245503 124.00586 36.775532 124.00586 39.888672 L 124.00586 39.974609 C 124.00586 43.425009 122.71102 46.221703 120.61719 48.158203 C 118.33478 50.268103 115.11768 51.394531 110.67383 51.394531 L 107.07422 51.394531 L 107.07422 61.611328 L 99.443359 61.611328 L 99.443359 29.242188 z M 107.07617 35.738281 L 107.07617 44.943359 L 110.61523 44.943359 C 112.81455 44.943359 114.2516 44.589319 115.24414 43.761719 C 116.1365 43.018219 116.63281 41.869125 116.63281 40.328125 C 116.63281 38.788225 116.1365 37.659546 115.24414 36.916016 C 114.2516 36.090496 112.81374 35.738281 110.61523 35.738281 L 107.07617 35.738281 z "
       transform="translate(0,961.4)"
       id="path16615" />
    <path
       id="path16622"
       mask="none"
       d="m 163.24514,988.73118 a 3.2979947,3.2979947 0 1 0 -6.59598,-0.002 3.2974559,3.2974559 0 0 0 6.59491,0.002"
       inkscape:connector-curvature="0"
       style="fill:#ffffff;fill-rule:evenodd;stroke-width:1.07759988;opacity:0.7" />
    <path
       style="fill:#ffffff;fill-rule:evenodd;stroke-width:1.07759988"
       inkscape:connector-curvature="0"
       d="m 156.66313,980.19338 a 8.2005349,8.2005349 0 1 0 -16.40001,0 8.2005349,8.2005349 0 0 0 16.40001,0"
       id="path16626" />
    <path
       style="fill:#ffffff;fill-rule:evenodd;stroke-width:1.07759988;opacity:0.8"
       inkscape:connector-curvature="0"
       d="m 158.86979,998.0632 a 4.9968306,4.9968306 0 1 0 -9.99226,0 4.9962918,4.9962918 0 1 0 9.99226,0"
       id="path16628" />
  </g>
</svg>

<?xml version="1.0" encoding="UTF-8"?>
<svg version="1.1" viewBox="0 0 250 91" xmlns="http://www.w3.org/2000/svg" xmlns:cc="http://creativecommons.org/ns#" xmlns:dc="http://purl.org/dc/elements/1.1/" xmlns:rdf="http://www.w3.org/1999/02/22-rdf-syntax-ns#">
<metadata>
<rdf:RDF>
<cc:Work rdf:about="">
<dc:format>image/svg+xml</dc:format>
<dc:type rdf:resource="http://purl.org/dc/dcmitype/StillImage"/>
<dc:title/>
</cc:Work>
</rdf:RDF>
</metadata>
<g transform="translate(0,-961.4)" fill="#fff">
<path transform="translate(0,961.4)" d="m120.99 12.023c-18.91 9.99e-4 -34.24 15.329-34.24 34.24 0 18.91 15.331 34.236 34.24 34.236 18.912 0 34.24-15.327 34.24-34.236 0-1.1121-0.05977-2.2091-0.16211-3.291a6.5626 6.5626 0 0 1-1.2012 0.11328 6.4225 6.4225 0 0 1-2.3789-12.387 34.469 34.469 0 0 0-1.373-2.4414 9.6057 9.6057 0 0 1-11.119-11.119 34.081 34.081 0 0 0-18.006-5.1152zm10.172 16.992c0.87932 0 1.661 0.27783 2.3086 0.8457 0.50747 0.44398 1.0082 1.2534 1.334 2.0605 0.36859 0.91272 12.168 29.689 12.168 29.689h-6.5664c-1.164 0-1.3984-0.15989-1.7812-1.0586-0.01182-0.0323-2.4629-5.9688-2.4629-5.9688h-8.4727l-2.7617 7.0273h-7.5996c0.54413-1.2942 3.8418-9.0998 4.6641-10.92 0.84592-1.8653 1.3173-2.291 3.5879-2.291h8.0391c-2.5023-6.0863-4.2843-10.424-5.4805-13.34-0.4924-1.2047-0.69531-1.978-0.69531-2.6816 0-1.736 1.5064-3.3633 3.7188-3.3633zm-31.723 0.22656h11.764c4.4072 0 7.6694 1.1229 9.8203 3.1973 1.8686 1.806 2.9785 4.3361 2.9785 7.4492v0.085937c0 3.4504-1.2948 6.2471-3.3887 8.1836-2.2824 2.1099-5.4995 3.2363-9.9434 3.2363h-3.5996v10.217h-7.6309v-32.369zm7.6328 6.4961v9.2051h3.5391c2.1993 0 3.6364-0.35404 4.6289-1.1816 0.89236-0.7435 1.3887-1.8926 1.3887-3.4336 0-1.5399-0.49631-2.6686-1.3887-3.4121-0.99254-0.82552-2.4304-1.1777-4.6289-1.1777h-3.5391z" fill-rule="evenodd" opacity=".95" stroke-width="1.0776"/>
<path d="m163.25 988.73a3.298 3.298 0 1 0-6.596-2e-3 3.2975 3.2975 0 0 0 6.5949 2e-3" fill-rule="evenodd" opacity=".7" stroke-width="1.0776"/>
<path d="m156.66 980.19a8.2005 8.2005 0 1 0-16.4 0 8.2005 8.2005 0 0 0 16.4 0" fill-rule="evenodd" stroke-width="1.0776"/>
<path d="m158.87 998.06a4.9968 4.9968 0 1 0-9.9923 0 4.9963 4.9963 0 1 0 9.9923 0" fill-rule="evenodd" opacity=".8" stroke-width="1.0776"/>
</g>
</svg>
